assets/img/testimonials/Malt.svg

<?xml version="1.0" encoding="utf-8"?>
<!-- Generator: Adobe Illustrator 22.0.0, SVG Export Plug-In . SVG Version: 6.00 Build 0)  -->
<svg version="1.1" id="Malt" xmlns="http://www.w3.org/2000/svg" xmlns:xlink="http://www.w3.org/1999/xlink" x="0px" y="0px"
	 viewBox="0 0 70 22" style="enable-background:new 0 0 70 22;" xml:space="preserve">
<style type="text/css">
	.st0{fill:#B8BCCC;}
</style>
<path id="Path" class="st0" d="M7.9,19c0,1.9,1.2,3,2.6,3c0,0,0,0,0,0c1.5,0,2.6-1.4,2.7-3l-2.7-2.8L7.9,19z"/>
<path id="Shape" class="st0" d="M7,3.1C6.5,2.5,5.8,2.2,5.1,2.2C4.4,2.2,3.8,2.5,3.3,3C2.2,4,2.2,5.8,3.2,6.9l0.4,0.4l5.6,0l0.9-0.9
	L7,3.1z M18,15.1l-0.4-0.4l-5.6,0l-0.9,0.9l3.1,3.4c1,1.1,2.7,1.1,3.7,0.1C19,17.9,19,16.2,18,15.1z"/>
<path id="Shape_1_" class="st0" d="M18.2,8.3l-5.4,5.5l5.7,0h0c0.7,0,1.4-0.3,1.9-0.8c0.5-0.5,0.8-1.2,0.8-2
	C21.2,9.5,20,8.2,18.2,8.3L18.2,8.3z M2.7,8.2L2.7,8.2C1.9,8.2,1.3,8.5,0.8,9C0.3,9.5,0,10.2,0,10.9c0,0.7,0.1,2.8,3,2.8l5.3-5.5
	L2.7,8.2z"/>
<path id="Path_1_" class="st0" d="M18.1,3.2c-1-1.1-2.7-1.1-3.7,0L3.1,14.9c-1,1.1-1,2.8,0,3.9c1,1.1,2.7,1.1,3.7,0L18.1,7.1
	C19.1,6,19.1,4.3,18.1,3.2"/>
<path id="Shape_2_" class="st0" d="M69.9,6.3c0-1.1-0.8-1.9-1.9-1.9h-1.4V0.8h-3.4l0,2c0,1-0.8,1.8-1.8,1.8h-1V8h1
	c1.4,0,1.4,1.9,1.4,1.9v3.2c0,3.3,1.8,4.6,4,4.6c1.7,0,2.2-0.4,2.2-0.4v-3.2c0,0-0.5,0.1-1.2,0.1c-0.9,0-1.2-0.7-1.2-1.4V8.2l1.4,0
	C69.1,8.2,69.9,7.3,69.9,6.3z M59.4,12.8V8.2l0-3c0-0.1,0-0.2,0-0.3V2.1c0-1-0.8-1.9-1.8-1.9c-1,0-1.8,0.8-1.8,1.8h0v11.1
	c0,3.2,1.7,4.4,3.9,4.4c0.4,0,0.7,0,1,0l0-3.3C59.6,14.2,59.4,13.5,59.4,12.8z M54.6,17.4h-3.3v-1.3c-1.5,2-4.6,1.2-5.1,1
	c-2-0.7-2.4-2.3-2.5-2.5c-0.2-0.6-0.2-1.2-0.1-1.7c0.1-0.9,0.6-2.1,2.3-2.7c0.9-0.4,3.1-0.6,4.2-0.8c0.9-0.2,0.8-0.7,0.8-0.7
	s0.1-0.9-0.8-1.3c-1.3-0.5-2.7,0.5-2.7,0.5c-0.3,0.2-0.6,0.3-0.9,0.3c-0.5,0-1-0.2-1.3-0.7c-0.5-0.7-0.3-1.7,0.4-2.2
	c0.1-0.1,1.5-1,3.5-1.2c0.1,0,0.1,0,0.2,0c0,0,0,0,0.1,0c0.5,0,1.1,0,1.6,0.2l0,0c0.1,0,0.2,0,0.3,0.1l0,0l0,0
	c2.7,0.8,3.3,3.3,3.3,4.2L54.6,17.4L54.6,17.4z M49.8,14.4c1.5-0.6,1.1-2.8,1.1-2.8S50.1,12,48.8,12c-1.3,0-1.6,1.1-1.5,1.7
	C47.4,14.4,48.3,15,49.8,14.4z M42.5,8.8c0-3.1-2.7-4.6-4.8-4.6c-2,0-3.1,0.7-4,1.6c-0.9-1.1-2.4-1.6-3.7-1.6
	c-1.5,0-2.6,0.4-3.4,0.9c-0.1,0.1-0.2,0-0.3,0L26.2,5c-0.6-0.6-1.6-0.6-2.2,0c-0.3,0.3-0.5,0.7-0.5,1.2c0,0.4,0.2,0.9,0.5,1.2
	c0.1,0.1,0.3,0.2,0.3,0.3c0.1,0,0.1,0.1,0.1,0.2v1.5l0,6.2c0,1,0.8,1.9,1.8,1.9h0c1,0,1.8-0.8,1.8-1.9V9.3c0-1.1,0.6-2.2,1.9-2.2
	c1.3,0,1.8,1.1,1.8,2.4v7.7h3.5V9.5c0-1.3,0.7-2.4,1.9-2.4S39,8.2,39,9.5v7.7h3.5V8.8z"/>
<path id="Path_2_" class="st0" d="M13.4,3c0-1.9-1.2-3-2.6-3c0,0,0,0,0,0C9.4,0,8.2,1.4,8.2,3l2.7,2.8L13.4,3z"/>
</svg>

<?xml version="1.0" encoding="UTF-8"?>
<svg width="70px" height="22px" viewBox="0 0 70 22" version="1.1" xmlns="http://www.w3.org/2000/svg" xmlns:xlink="http://www.w3.org/1999/xlink">
    <!-- Generator: Sketch 52.4 (67378) - http://www.bohemiancoding.com/sketch -->
    <title>Malt</title>
    <desc>Created with Sketch.</desc>
    <g id="Page-1" stroke="none" stroke-width="1" fill="none" fill-rule="evenodd">
        <g id="Malt" fill="#B8BCCC">
            <path d="M7.9,19 C7.9,20.9 9.1,22 10.5,22 C10.5,22 10.5,22 10.5,22 C12,22 13.1,20.6 13.2,19 L10.5,16.2 L7.9,19 Z" id="Path"></path>
            <path d="M7,3.1 C6.5,2.5 5.8,2.2 5.1,2.2 C4.4,2.2 3.8,2.5 3.3,3 C2.2,4 2.2,5.8 3.2,6.9 L3.6,7.3 L9.2,7.3 L10.1,6.4 L7,3.1 Z M18,15.1 L17.6,14.7 L12,14.7 L11.1,15.6 L14.2,19 C15.2,20.1 16.9,20.1 17.9,19.1 C19,17.9 19,16.2 18,15.1 Z" id="Shape" fill-rule="nonzero"></path>
            <path d="M18.2,8.3 L12.8,13.8 L18.5,13.8 C19.2,13.8 19.9,13.5 20.4,13 C20.9,12.5 21.2,11.8 21.2,11 C21.2,9.5 20,8.2 18.2,8.3 Z M2.7,8.2 C1.9,8.2 1.3,8.5 0.8,9 C0.3,9.5 0,10.2 0,10.9 C0,11.6 0.1,13.7 3,13.7 L8.3,8.2 L2.7,8.2 Z" id="Shape_1_" fill-rule="nonzero"></path>
            <path d="M18.1,3.2 C17.1,2.1 15.4,2.1 14.4,3.2 L3.1,14.9 C2.1,16 2.1,17.7 3.1,18.8 C4.1,19.9 5.8,19.9 6.8,18.8 L18.1,7.1 C19.1,6 19.1,4.3 18.1,3.2" id="Path_1_"></path>
            <path d="M69.9,6.3 C69.9,5.2 69.1,4.4 68,4.4 L66.6,4.4 L66.6,0.8 L63.2,0.8 L63.2,2.8 C63.2,3.8 62.4,4.6 61.4,4.6 L60.4,4.6 L60.4,8 L61.4,8 C62.8,8 62.8,9.9 62.8,9.9 L62.8,13.1 C62.8,16.4 64.6,17.7 66.8,17.7 C68.5,17.7 69,17.3 69,17.3 L69,14.1 C69,14.1 68.5,14.2 67.8,14.2 C66.9,14.2 66.6,13.5 66.6,12.8 L66.6,8.2 L68,8.2 C69.1,8.2 69.9,7.3 69.9,6.3 Z M59.4,12.8 L59.4,8.2 L59.4,5.2 C59.4,5.1 59.4,5 59.4,4.9 L59.4,2.1 C59.4,1.1 58.6,0.2 57.6,0.2 C56.6,0.2 55.8,1 55.8,2 L55.8,13.1 C55.8,16.3 57.5,17.5 59.7,17.5 C60.1,17.5 60.4,17.5 60.7,17.5 L60.7,14.2 C59.6,14.2 59.4,13.5 59.4,12.8 Z M54.6,17.4 L51.3,17.4 L51.3,16.1 C49.8,18.1 46.7,17.3 46.2,17.1 C44.2,16.4 43.8,14.8 43.7,14.6 C43.5,14 43.5,13.4 43.6,12.9 C43.7,12 44.2,10.8 45.9,10.2 C46.8,9.8 49,9.6 50.1,9.4 C51,9.2 50.9,8.7 50.9,8.7 C50.9,8.7 51,7.8 50.1,7.4 C48.8,6.9 47.4,7.9 47.4,7.9 C47.1,8.1 46.8,8.2 46.5,8.2 C46,8.2 45.5,8 45.2,7.5 C44.7,6.8 44.9,5.8 45.6,5.3 C45.7,5.2 47.1,4.3 49.1,4.1 C49.2,4.1 49.2,4.1 49.3,4.1 C49.3,4.1 49.3,4.1 49.4,4.1 C49.9,4.1 50.5,4.1 51,4.3 C51.1,4.3 51.2,4.3 51.3,4.4 C54,5.2 54.6,7.7 54.6,8.6 L54.6,17.4 Z M49.8,14.4 C51.3,13.8 50.9,11.6 50.9,11.6 C50.9,11.6 50.1,12 48.8,12 C47.5,12 47.2,13.1 47.3,13.7 C47.4,14.4 48.3,15 49.8,14.4 Z M42.5,8.8 C42.5,5.7 39.8,4.2 37.7,4.2 C35.7,4.2 34.6,4.9 33.7,5.8 C32.8,4.7 31.3,4.2 30,4.2 C28.5,4.2 27.4,4.6 26.6,5.1 C26.5,5.2 26.4,5.1 26.3,5.1 L26.2,5 C25.6,4.4 24.6,4.4 24,5 C23.7,5.3 23.5,5.7 23.5,6.2 C23.5,6.6 23.7,7.1 24,7.4 C24.1,7.5 24.3,7.6 24.3,7.7 C24.4,7.7 24.4,7.8 24.4,7.9 L24.4,9.4 L24.4,15.6 C24.4,16.6 25.2,17.5 26.2,17.5 C27.2,17.5 28,16.7 28,15.6 L28,9.3 C28,8.2 28.6,7.1 29.9,7.1 C31.2,7.1 31.7,8.2 31.7,9.5 L31.7,17.2 L35.2,17.2 L35.2,9.5 C35.2,8.2 35.9,7.1 37.1,7.1 C38.3,7.1 39,8.2 39,9.5 L39,17.2 L42.5,17.2 L42.5,8.8 Z" id="Shape_2_" fill-rule="nonzero"></path>
            <path d="M13.4,3 C13.4,1.1 12.2,0 10.8,0 C10.8,0 10.8,0 10.8,0 C9.4,0 8.2,1.4 8.2,3 L10.9,5.8 L13.4,3 Z" id="Path_2_"></path>
        </g>
    </g>
</svg>
